actions/22x22-light/upload-media.svg

<svg viewBox="0 0 22 22" xmlns="http://www.w3.org/2000/svg"><path d="m3.2851562 3c-.4487734 0-.8125.3640808-.8125.8125v14.375c0 .44882.3640417.8125.8125.8125h15.4296878c.448784 0 .8125-.364081.8125-.8125v-14.375c0-.4488199-.364031-.8125-.8125-.8125zm7.7148438 1.15625c.115912-.0073252.233602.0323531.322266.1210938l1.927734 2.1289062c.163702.1643001.163702.4294499 0 .59375-.16371.1643001-.429844.1643001-.59375 0l-1.65625-1.8300781-1.65625 1.8300781c-.1639018.1643001-.4298482.1643001-.59375 0-.1639059-.1643001-.1639059-.4294499 0-.59375l1.927734-2.1289062c.088673-.0887774.20615-.1284109.322266-.1210938zm-.001953 2.6367188c.381716 0 .691406.3111794.691406.6933593s-.30969.6914063-.691406.6914063c-.381717 0-.691406-.3092264-.691406-.6914063s.309689-.6933593.691406-.6933593zm0 1.9785156c.381716 0 .691406.3092304.691406.6914062 0 .3821799-.30969.6914064-.691406.6914064-.381717 0-.691406-.3092265-.691406-.6914064 0-.3821758.309689-.6914062.691406-.6914062zm-2.5781251.9023437c.178443-.016596.3670849.0748379.5234375.2792969l3.2148436 4.205078c.312716.408951.860876.444444 1.222656.078125l.785157-.796875c.361465-.366406.894435-.322143 1.189453.099609l2.037109 2.91211c.294388.422327.116186.763672-.398437.763672h-5.994141-5.7285156c-.5145695 0-.7436999-.372402-.5117188-.832032l3.1972656-6.33789c.1158276-.2298148.2844477-.3544979.4628907-.3710939z" fill="#4d4d4d"/></svg>

<svg xmlns="http://www.w3.org/2000/svg" viewBox="0 0 22 22">
  <defs id="defs3051">
    <style type="text/css" id="current-color-scheme">
      .ColorScheme-Text {
        color:#4d4d4d
      }
      </style>
  </defs>
 <path 
     style="fill:currentColor;fill-opacity:1;stroke:none"      
	 class="ColorScheme-Text"
        d="M 3.2851562 3 C 2.8363828 3 2.4726562 3.3640808 2.4726562 3.8125 L 2.4726562 18.1875 C 2.4726562 18.63632 2.8366979 19 3.2851562 19 L 18.714844 19 C 19.163628 19 19.527344 18.635919 19.527344 18.1875 L 19.527344 3.8125 C 19.527344 3.3636801 19.163313 3 18.714844 3 L 3.2851562 3 z M 11 4.15625 C 11.115912 4.1489248 11.233602 4.1886031 11.322266 4.2773438 L 13.25 6.40625 C 13.413702 6.5705501 13.413702 6.8356999 13.25 7 C 13.08629 7.1643001 12.820156 7.1643001 12.65625 7 L 11 5.1699219 L 9.34375 7 C 9.1798482 7.1643001 8.9139018 7.1643001 8.75 7 C 8.5860941 6.8356999 8.5860941 6.5705501 8.75 6.40625 L 10.677734 4.2773438 C 10.766407 4.1885664 10.883884 4.1489329 11 4.15625 z M 10.998047 6.7929688 C 11.379763 6.7929688 11.689453 7.1041482 11.689453 7.4863281 C 11.689453 7.868508 11.379763 8.1777344 10.998047 8.1777344 C 10.61633 8.1777344 10.306641 7.868508 10.306641 7.4863281 C 10.306641 7.1041482 10.61633 6.7929688 10.998047 6.7929688 z M 10.998047 8.7714844 C 11.379763 8.7714844 11.689453 9.0807148 11.689453 9.4628906 C 11.689453 9.8450705 11.379763 10.154297 10.998047 10.154297 C 10.61633 10.154297 10.306641 9.8450705 10.306641 9.4628906 C 10.306641 9.0807148 10.61633 8.7714844 10.998047 8.7714844 z M 8.4199219 9.6738281 C 8.5983649 9.6572321 8.7870068 9.748666 8.9433594 9.953125 L 12.158203 14.158203 C 12.470919 14.567154 13.019079 14.602647 13.380859 14.236328 L 14.166016 13.439453 C 14.527481 13.073047 15.060451 13.11731 15.355469 13.539062 L 17.392578 16.451172 C 17.686966 16.873499 17.508764 17.214844 16.994141 17.214844 L 11 17.214844 L 5.2714844 17.214844 C 4.7569149 17.214844 4.5277845 16.842442 4.7597656 16.382812 L 7.9570312 10.044922 C 8.0728588 9.8151072 8.2414789 9.6904241 8.4199219 9.6738281 z "
     />
</svg>
